X: 94
T:Tricotada
M:3/8
L:1/8
C:Traditional
R:Polka
Z:Steve Mansfield
K:G
Bdc |: B2 A/B/ | G/A/B/A/B/c/ | A/B/A/B/G | Bdc | B2 A |1 G/A/B/A/B/c/ | 
ddd | Adc :|2 G/A/BA | G2B/A/|: GFG | A2 B/A/ | G/A/B/A/B/c/ | 
A/B/GB/A/ | GFG | A2 A | G/A/BA |1 G2B/A/ :|2 G3 | Bdc || G3  ||
<end>
<start>
